public/logos/spring.svg

<svg viewBox="0 0 512 512" xmlns="http://www.w3.org/2000/svg" fill-rule="evenodd" clip-rule="evenodd" stroke-linejoin="round" stroke-miterlimit="2"><path d="M465.42 30.092c-7.322 17.802-16.791 33.584-27.27 47.725C391.94 30.723 327.295.8 255.96.8 115.815.8 1.3 114.684 1.3 255.334c0 73.482 31.438 139.64 81.31 186.355l9.469 8.46c44.063 37.245 101.384 59.845 163.755 59.845 133.833 0 244.055-104.414 253.524-236.226 7.576-64.013-11.868-145.953-43.937-243.676zM119.478 443.836c-7.323 9.47-20.96 10.48-30.428 3.156-9.47-7.323-10.48-20.958-3.157-30.428 7.323-9.469 20.959-10.48 30.428-3.156 8.964 7.323 10.48 20.959 3.157 30.428zm344.429-76.133c-62.498 83.456-196.835 55.174-282.437 59.34 0 0-15.277 1.01-30.428 3.157 0 0 5.808-2.651 13.13-5.303 60.351-20.958 88.76-25.251 125.5-44.063 68.81-35.226 137.494-112.37 151.256-192.164-26.262 76.638-106.056 142.797-178.528 169.564-49.871 18.433-139.64 36.235-139.64 36.235l-3.661-2.146c-60.856-29.923-63.002-162.24 48.356-204.789 48.862-18.938 95.072-8.46 148.1-20.959 56.184-13.13 121.333-55.174 147.468-110.222 29.165 88.759 64.896 226.253.884 311.35z" fill="#6cb52d" fill-rule="nonzero"/><path d="M119.477 443.836c-7.323 9.47-20.96 10.48-30.428 3.156-9.47-7.323-10.48-20.958-3.157-30.428 7.323-9.469 20.959-10.48 30.428-3.156 8.964 7.323 10.48 20.959 3.157 30.428zM463.906 367.703c-62.498 83.456-196.835 55.174-282.437 59.34 0 0-15.277 1.01-30.428 3.157 0 0 5.808-2.651 13.13-5.303 60.351-20.958 88.76-25.251 125.5-44.063 68.81-35.226 137.494-112.37 151.256-192.164-26.262 76.638-106.056 142.797-178.528 169.564-49.871 18.433-139.64 36.235-139.64 36.235l-3.661-2.146c-60.856-29.923-63.002-162.24 48.356-204.789 48.862-18.938 95.072-8.46 148.1-20.959 56.184-13.13 121.333-55.174 147.468-110.222 29.165 88.759 64.896 226.253.884 311.35z" fill="#fff" fill-rule="nonzero"/></svg>

<svg width="512" height="512" viewBox="0 0 512 512" fill="none" xmlns="http://www.w3.org/2000/svg">
<path d="M465.42 30.0918C458.098 47.8938 448.629 63.6758 438.15 77.8168C391.94 30.7228 327.295 0.799805 255.96 0.799805C115.815 0.799805 1.30005 114.684 1.30005 255.334C1.30005 328.816 32.738 394.974 82.61 441.689L92.079 450.149C136.142 487.394 193.463 509.994 255.834 509.994C389.667 509.994 499.889 405.58 509.358 273.768C516.934 209.755 497.489 127.815 465.42 30.0918ZM119.478 443.836C112.155 453.306 98.518 454.316 89.05 446.992C79.58 439.669 78.57 426.034 85.893 416.564C93.216 407.095 106.852 406.084 116.321 413.408C125.285 420.731 126.801 434.367 119.478 443.836ZM463.907 367.703C401.409 451.159 267.072 422.877 181.47 427.043C181.47 427.043 166.193 428.053 151.042 430.2C151.042 430.2 156.85 427.549 164.172 424.897C224.523 403.939 252.932 399.646 289.672 380.834C358.482 345.608 427.166 268.464 440.928 188.67C414.666 265.308 334.872 331.467 262.4 358.234C212.529 376.667 122.76 394.469 122.76 394.469L119.099 392.323C58.243 362.4 56.097 230.083 167.455 187.534C216.317 168.596 262.527 179.074 315.555 166.575C371.739 153.445 436.888 111.401 463.023 56.3528C492.188 145.112 527.919 282.606 463.907 367.703Z" fill="#6CB52D"/>
<path d="M119.477 443.836C112.154 453.306 98.517 454.316 89.049 446.992C79.579 439.669 78.569 426.034 85.892 416.564C93.215 407.095 106.851 406.084 116.32 413.408C125.284 420.731 126.8 434.367 119.477 443.836ZM463.906 367.703C401.408 451.159 267.071 422.877 181.469 427.043C181.469 427.043 166.192 428.053 151.041 430.2C151.041 430.2 156.849 427.549 164.171 424.897C224.522 403.939 252.931 399.646 289.671 380.834C358.481 345.608 427.165 268.464 440.927 188.67C414.665 265.308 334.871 331.467 262.399 358.234C212.528 376.667 122.759 394.469 122.759 394.469L119.098 392.323C58.242 362.4 56.096 230.083 167.454 187.534C216.316 168.596 262.526 179.074 315.554 166.575C371.738 153.445 436.887 111.401 463.022 56.3525C492.187 145.112 527.918 282.606 463.906 367.703Z" fill="white"/>
</svg>
